X:21
T:The Duke of Leinster / The Corner House
R:reel
D:Mike McHale, The Schoolmaster's House
D:Tommy Keane, Jacqueline McCarthy: The wind among the reeds
D:Micheal O'Raghallaigh, The Nervous Man
Z:Julie Ross
dega b~g3 | agbg agef | g2fg efge |1 dBAB GABc :|2 dBAB GEDE ||
M:C|
K:G
"The Duke of Leinster (Ghosts of Erin version)"
G2BG DGBc | d2eB dBAB | G2BG DGBc | dBAB GEDE |
G2BG DGBc | d2eB  dBAB |1 G~B3 d~B3 | dBAB GEDE :|2 GABd edge | dBAB GABc||
|: dega b~g3 | agbg ageg | dega bage | dBAB GED2 |
dega b~g3 | agbg agef | g2fg efge |1 dBAB GABc :|2 dBAB GEDE ||
K:Ador
"The Corner House"
EAAG ABcd|egdB cBAG|EGGF G2AB|(3cBA BG AGED|
EAAG A2(3Bcd|eaag efge|d2Bd efge|1 dBGB A2AG:|2 dBGB A2(3Bcd||
|:eaag a2ga|bgab gedB|d2Bd edBd|(3efg fg edBd|
eaag a2ga|bgab gedB|d2Bd efge|1 dBGB A2(3Bcd:|2 dBGB ABAG ||
